X: 1
T: Kveld p\aa Sanness\aetra
R: shottish (reinlendar)
O: Norway
B: Folklore Village booklet
M: C
L: 1/8
K: D
|: "D"f>d AF A2 A2 | "G"G2 BB "(D)"B2 A2 \
|1,3 "A7"A2 c>e g2 A>G | "D"F2 A2 A4 \
:|2,4"A7"A2 c>e g2 ec | "D"d2 d2 d4 :|
|: "D"DE FG A2 FD | "A7"F2E2 E4 \
|1,3  A2 c2 Ac e2 | "D"f>e dc d2 A2 \
:|2,4 A2 c2 Ac ef | "D"d2 d2 d2 :|
